icons/angularjs-fill.svg

<svg xmlns="http://www.w3.org/2000/svg" width="24" height="24" fill="none"><g clip-path="url(#a)"><g><path fill="#121212" d="M12 2L21.3 5.32L19.882 17.63L12 22L4.11801 17.63L2.70001 5.32L12 2ZM12 4.21L6.18601 17.26H8.35401L9.52301 14.34H14.457L15.627 17.26H17.794L12 4.21ZM13.698 12.54H10.302L12 8.45L13.698 12.54Z"/></g></g><defs><clipPath id="a"><rect width="24" height="24" fill="white"/></clipPath></defs></svg>

<svg width="24" height="24" fill="none" xmlns="http://www.w3.org/2000/svg"><g clip-path="url(#a)"><path d="m12 2 9.3 3.32-1.418 12.31L12 22l-7.882-4.37L2.7 5.32 12 2Zm0 2.21L6.186 17.26h2.168l1.169-2.92h4.934l1.17 2.92h2.167L12 4.21Zm1.698 8.33h-3.396L12 8.45l1.698 4.09Z" /></g><defs><clipPath id="a"><path fill="#fff" d="M0 0h24v24H0z"/></clipPath></defs></svg>
